X: 50
T: MY LADY CULLEN
B: FIFTY OLD ENGLISH FOLK DANCE AIRS", Edgar H. Hunt ed., Schott & Co. Ltd. pub., London 1939
Z: 2004-2014 John Chambers <jc:trillian.mit.edu>
M: 2/2
L: 1/8
K: Dm
|:\
A2A2 f3f | (gf)ed ^c3c |\
d2d2 A2f2 | e4 d4 :|\
|:\
A2A2 c3c | (F3G) A3c |\
B2G2 G2A2 | (B^c) d6 :|
